Micmute/Assets.xcassets/mic.mute.imageset/mic.slash.fill.svg

<svg width="32" height="37" viewBox="0 0 32 37" fill="none" xmlns="http://www.w3.org/2000/svg">
<path d="M6.30193 14.6981V17.4799C6.30193 22.6211 9.9407 25.9958 15.0936 25.9958C16.7925 25.9958 18.3268 25.629 19.615 24.9464L22.0662 27.3936C20.5316 28.3357 18.7165 28.9346 16.7134 29.1415V31.8941H22.2655C23.1927 31.8941 23.9792 32.6453 23.9792 33.5725C23.9792 34.4822 23.1927 35.2511 22.2655 35.2511H7.92762C6.99446 35.2511 6.20802 34.4822 6.20802 33.5725C6.20802 32.6453 6.99446 31.8941 7.92762 31.8941H13.4797V29.1415C7.28204 28.5018 2.88622 24.1177 2.88622 17.5856V14.6981C2.88622 13.7767 3.64917 13.0548 4.58234 13.0548C5.52137 13.0548 6.30193 13.7767 6.30193 14.6981ZM17.194 22.5292C16.5484 22.7856 15.8392 22.9205 15.0936 22.9205C11.9772 22.9205 9.48876 20.5729 9.48876 17.0985V14.8367L17.194 22.5292ZM27.301 14.6981V17.5856C27.301 19.5016 26.9227 21.2328 26.2228 22.7325L23.5438 20.056C23.7689 19.2618 23.8852 18.3991 23.8852 17.4799V14.6981C23.8852 13.7767 24.6658 13.0548 25.6048 13.0548C26.538 13.0548 27.301 13.7767 27.301 14.6981ZM20.6808 6.82785V17.0985C20.6808 17.1302 20.6806 17.1617 20.6767 17.1915L9.53494 6.06019C9.86768 3.01684 12.2122 1 15.0936 1C18.2042 1 20.6808 3.36518 20.6808 6.82785Z" fill="#616161"/>
<path d="M27.3537 29.9573C27.8233 30.4151 28.5862 30.4209 29.0382 29.9573C29.49 29.4878 29.5076 28.7425 29.0382 28.2671L4.03652 3.29475C3.57287 2.82524 2.80404 2.81937 2.33453 3.29475C1.88849 3.74079 1.88849 4.52135 2.33453 4.97327L27.3537 29.9573Z" fill="#FF453A"/>
</svg>

<?xml version="1.0"?>
<svg width="32" height="37" xmlns="http://www.w3.org/2000/svg" xmlns:svg="http://www.w3.org/2000/svg">
 <g class="layer">
  <title>Layer 1</title>
  <path d="m6.3,14.7l0,2.78c0,5.14 3.64,8.52 8.79,8.52c1.7,0 3.24,-0.37 4.52,-1.05l2.46,2.44c-1.54,0.95 -3.35,1.54 -5.36,1.75l0,2.75l5.56,0c0.92,0 1.71,0.76 1.71,1.68c0,0.91 -0.79,1.68 -1.71,1.68l-14.34,0c-0.94,0 -1.72,-0.77 -1.72,-1.68c0,-0.92 0.78,-1.68 1.72,-1.68l5.55,0l0,-2.75c-6.2,-0.64 -10.59,-5.02 -10.59,-11.55l0,-2.89c0,-0.92 0.76,-1.65 1.69,-1.65c0.94,0 1.72,0.73 1.72,1.65zm10.89,7.83c-0.64,0.26 -1.35,0.39 -2.1,0.39c-3.11,0 -5.6,-2.35 -5.6,-5.82l0,-2.26l7.7,7.69zm10.11,-7.83l0,2.89c0,1.91 -0.38,3.64 -1.08,5.14l-2.68,-2.67c0.23,-0.8 0.35,-1.66 0.35,-2.58l0,-2.78c0,-0.92 0.78,-1.65 1.71,-1.65c0.94,0 1.7,0.73 1.7,1.65zm-6.62,-7.87l0,10.27c0,0.03 0,0.06 0,0.09l-11.15,-11.13c0.34,-3.04 2.68,-5.06 5.56,-5.06c3.11,0 5.59,2.37 5.59,5.83z" fill="#ff0000" id="svg_1" transform="matrix(1 0 0 1 0 0)"/>
  <path d="m27.35,29.96c0.47,0.46 1.24,0.46 1.69,0c0.45,-0.47 0.47,-1.22 0,-1.69l-25,-24.98c-0.47,-0.46 -1.24,-0.47 -1.71,0c-0.44,0.45 -0.44,1.23 0,1.68l25.02,24.99z" fill="#ff0000" id="svg_2" stroke-width="2"/>
 </g>

</svg>
